src/svg/Social_Pinterest_16.svg

<?xml version="1.0" encoding="UTF-8"?>
<svg width="16px" height="16px" viewBox="0 0 16 16" version="1.1" xmlns="http://www.w3.org/2000/svg" xmlns:xlink="http://www.w3.org/1999/xlink">
    <!-- Generator: Sketch 55.2 (78181) - https://sketchapp.com -->
    <title>Icons/Social/Pinterest/16</title>
    <desc>Created with Sketch.</desc>
    <g id="Icons/Social/Pinterest/16" stroke="none" stroke-width="1" fill="none" fill-rule="evenodd">
        <path d="M7.47698109,10.0491555 C7.15171793,11.473366 6.83277056,12.8462608 6.13882319,13.9294187 C5.9256653,14.2602081 5.71171793,14.6778397 5.34777056,14.8570502 C4.80934951,12.0915239 5.93356004,9.76494498 6.37724425,7.43994498 C5.81198109,6.28573446 6.16329688,4.33099761 7.37513898,4.10915551 C9.13013898,3.78783972 8.6675074,5.90599761 8.36987582,6.8904713 C8.20645477,7.4304713 7.91198109,7.94678709 7.95619161,8.53889235 C8.05329688,9.78705024 9.62513898,9.86836603 10.4296127,9.22494498 C11.5830337,8.30599761 11.9161916,6.52968182 11.8032969,5.07073446 C11.6327706,2.84915551 9.11592846,1.74310288 6.89434951,2.63126077 C5.74882319,3.09073446 4.70908635,4.1423134 4.55829688,5.68810288 C4.47934951,6.50283972 4.6506653,7.15257656 4.97119161,7.61126077 C5.01934951,7.68152393 5.18592846,7.80468182 5.21040214,7.99099761 C5.26092846,8.36678709 5.0375074,8.77178709 4.83224425,9.05283972 C3.69461267,8.72599761 3.10724425,7.70362919 3.01329688,6.4104713 C2.79856004,3.4673134 5.21513898,1.22757656 8.05961267,1.01915551 C11.0959285,0.795734455 13.5030337,2.54915551 13.7264548,5.1054713 C13.8930337,7.00494498 13.2172442,8.91626077 12.1475074,9.94573446 C11.3422442,10.7194187 9.63145477,11.4765239 8.2325074,10.7359976 C7.92224425,10.5717871 7.7856653,10.3712608 7.47698109,10.0491555" id="Fill-9" fill="#000000"></path>
    </g>
</svg>

<svg viewBox="0 0 16 16"><path d="M7.477 10.05c-.325 1.423-.644 2.796-1.338 3.88-.213.33-.427.748-.791.927-.539-2.765.586-5.092 1.03-7.417-.566-1.154-.215-3.109.997-3.33 1.755-.322 1.293 1.796.995 2.78-.164.54-.458 1.057-.414 1.649.097 1.248 1.67 1.33 2.474.686 1.153-.919 1.486-2.695 1.373-4.154-.17-2.222-2.687-3.328-4.909-2.44-1.145.46-2.185 1.511-2.336 3.057-.079.815.093 1.465.413 1.923.048.07.215.194.24.38.05.376-.173.78-.379 1.062-1.137-.327-1.725-1.35-1.819-2.643C2.8 3.467 5.215 1.228 8.06 1.02c3.036-.224 5.443 1.53 5.666 4.085.167 1.9-.509 3.811-1.578 4.84-.806.774-2.517 1.532-3.915.791-.31-.164-.447-.365-.756-.687" fill-rule="evenodd"/></svg>
